X: 7099
T: Christmas Day
R: reel
M: 4/4
K: Dmajor
d2 fd AF~F2|DFBF AFEF|D2 dB AFDF|G2 BG EFGE|
D2 dB AF~F2|DFBF AFAB|FAdf edAF|((3GAB) EG FDD2:|
ad ~d2 Adfd|adfd edBd|ad ~d2 Adfd|gfeg fdd2|
ad ~d2 Adfd|adfd edBd|d2 ((3Bcd) AdFB|AFEG FD D2:|

